svg/300/sharp/filter_center_focus-fill.svg

<svg xmlns="http://www.w3.org/2000/svg" width="48" height="48" viewBox="0 -960 960 960"><path d="M140.001-140.001v-214.307h45.384v168.923h168.923v45.384H140.001Zm465.691 0v-45.384h168.923v-168.923h45.384v214.307H605.692ZM140.001-605.692v-214.307h214.307v45.384H185.385v168.923h-45.384Zm634.614 0v-168.923H605.692v-45.384h214.307v214.307h-45.384ZM480-391.77q-38.076 0-63.153-25.077Q391.77-441.924 391.77-480q0-38.076 25.077-63.153Q441.924-568.23 480-568.23q38.076 0 63.153 25.077Q568.23-518.076 568.23-480q0 38.076-25.077 63.153Q518.076-391.77 480-391.77Z"/></svg>

<svg xmlns="http://www.w3.org/2000/svg" width="48" height="48" viewBox="0 -960 960 960"><path d="M140-140v-214.31h45.39v168.92h168.92V-140H140Zm465.69 0v-45.39h168.92v-168.92H820V-140H605.69ZM140-605.69V-820h214.31v45.39H185.39v168.92H140Zm634.61 0v-168.92H605.69V-820H820v214.31h-45.39ZM480-391.77q-38.08 0-63.15-25.08-25.08-25.07-25.08-63.15t25.08-63.15q25.07-25.08 63.15-25.08t63.15 25.08q25.08 25.07 25.08 63.15t-25.08 63.15q-25.07 25.08-63.15 25.08Z"/></svg>
